icons/guidance-icons/manoeuvers-sdk/left-roundabout-exit9.svg

<svg width="80" height="80" viewBox="0 0 80 80" fill="none" xmlns="http://www.w3.org/2000/svg">
<path d="M53.65 22.23C52.9605 20.7083 52.1231 19.258 51.15 17.9L46.34 20.68C45.1961 19.1698 43.8502 17.8239 42.34 16.68L45.12 11.87C43.762 10.8969 42.3117 10.0595 40.79 9.37L38 14.13C36.2409 13.3874 34.386 12.8959 32.49 12.67V7.12C31.68 7 30.84 7 30 7C29.16 7 28.32 7 27.5 7.12V12.67C25.6074 12.8968 23.7559 13.3883 22 14.13L19.23 9.35C17.7083 10.0395 16.258 10.8769 14.9 11.85L17.68 16.66C16.1698 17.8039 14.8239 19.1498 13.68 20.66L8.85 17.9C7.87689 19.258 7.03954 20.7083 6.35 22.23L11.13 25C10.3883 26.7559 9.8968 28.6074 9.67 30.5H4.12C4 31.32 4 32.16 4 33C4 33.84 4 34.68 4.12 35.5H9.67C9.8968 37.3926 10.3883 39.2441 11.13 41L6.35 43.77C7.03954 45.2917 7.87689 46.742 8.85 48.1L13.66 45.32C14.8039 46.8302 16.1498 48.1761 17.66 49.32L14.9 54.15C16.258 55.1231 17.7083 55.9605 19.23 56.65L22 51.87C25.7587 53.4613 29.9069 53.8943 33.9132 53.1135C37.9195 52.3328 41.6016 50.3739 44.4877 47.4877C47.3739 44.6016 49.3328 40.9195 50.1135 36.9132C50.8943 32.9069 50.4613 28.7587 48.87 25L53.65 22.23ZM30 48.5C26.9344 48.5 23.9376 47.5909 21.3887 45.8878C18.8397 44.1846 16.853 41.7638 15.6799 38.9316C14.5067 36.0993 14.1998 32.9828 14.7978 29.9761C15.3959 26.9694 16.8721 24.2076 19.0398 22.0398C21.2076 19.8721 23.9694 18.3959 26.9761 17.7978C29.9828 17.1998 33.0993 17.5067 35.9316 18.6799C38.7638 19.853 41.1846 21.8397 42.8878 24.3887C44.5909 26.9376 45.5 29.9344 45.5 33C45.4974 37.11 43.8635 41.051 40.9572 43.9572C38.051 46.8635 34.11 48.4974 30 48.5Z" fill="#C3CDDE" fill-opacity="0.35"/>
<path d="M35.8399 30.92C35.8399 38.1 32.5599 41.09 25.3099 42.7L24.5299 40.08C28.9499 38.98 31.3099 37.4 31.8799 34.08C31.4547 34.6537 30.8971 35.1161 30.2546 35.4277C29.6121 35.7394 28.9037 35.8911 28.1899 35.87C25.4599 35.87 23.1899 33.69 23.1899 30.13C23.1899 26.57 25.9699 24.13 29.4799 24.13C33.6999 24.14 35.8399 26.92 35.8399 30.92ZM32.0699 31.55C32.0699 28.06 31.3599 26.82 29.5199 26.82C27.9299 26.82 26.9199 27.91 26.9199 30.01C26.9199 32.38 27.9199 33.21 29.2599 33.21C29.83 33.1912 30.3861 33.0293 30.8771 32.7392C31.3682 32.4491 31.7784 32.0402 32.0699 31.55ZM60.8999 16.74L56.8399 21.31L65.9999 30H54.7399C53.6873 29.9971 52.6624 29.6621 51.8113 29.0426C50.9602 28.4231 50.3263 27.5508 49.9999 26.55C48.8921 23.1304 46.925 20.0524 44.2869 17.6107C41.6489 15.1689 38.4282 13.4452 34.9333 12.6046C31.4384 11.764 27.7862 11.8345 24.3263 12.8095C20.8664 13.7845 17.7148 15.6313 15.173 18.173C12.6312 20.7148 10.7844 23.8665 9.80944 27.3264C8.83445 30.7862 8.76391 34.4384 9.60455 37.9334C10.4452 41.4283 12.1689 44.6489 14.6106 47.287C17.0523 49.925 20.1303 51.8921 23.5499 53C24.5508 53.3263 25.4231 53.9602 26.0425 54.8113C26.662 55.6624 26.9971 56.6873 26.9999 57.74V80H32.9999V57.74C32.999 55.4162 32.2621 53.1523 30.8949 51.2732C29.5278 49.3941 27.6007 47.9962 25.3899 47.28C22.9468 46.4893 20.7475 45.0846 19.0027 43.2004C17.258 41.3162 16.0262 39.0156 15.4252 36.5189C14.8243 34.0223 14.8744 31.4131 15.5708 28.9414C16.2671 26.4696 17.5863 24.2181 19.4022 22.4022C21.218 20.5864 23.4696 19.2672 25.9413 18.5708C28.4131 17.8745 31.0222 17.8244 33.5189 18.4253C36.0155 19.0262 38.3161 20.258 40.2003 22.0028C42.0845 23.7476 43.4892 25.9468 44.2799 28.39C44.9961 30.6007 46.394 32.5279 48.2731 33.895C50.1523 35.2621 52.4161 35.999 54.7399 36H65.9999L56.8599 44.64L60.9199 49.21L77.16 33L60.8999 16.74Z" fill="white"/>
</svg>

<svg xmlns="http://www.w3.org/2000/svg" viewBox="0 0 80 80"><path d="M53.65,22.23a25.51,25.51,0,0,0-2.5-4.33l-4.81,2.78a20.69,20.69,0,0,0-4-4l2.78-4.81a25.51,25.51,0,0,0-4.33-2.5L38,14.13a20.36,20.36,0,0,0-5.51-1.46V7.12C31.68,7,30.84,7,30,7s-1.68,0-2.5.12v5.55A20.36,20.36,0,0,0,22,14.13L19.23,9.35a25.51,25.51,0,0,0-4.33,2.5l2.78,4.81a20.69,20.69,0,0,0-4,4L8.85,17.9a25.51,25.51,0,0,0-2.5,4.33L11.13,25A20.36,20.36,0,0,0,9.67,30.5H4.12C4,31.32,4,32.16,4,33s0,1.68.12,2.5H9.67A20.36,20.36,0,0,0,11.13,41L6.35,43.77a25.51,25.51,0,0,0,2.5,4.33l4.81-2.78a20.69,20.69,0,0,0,4,4L14.9,54.15a25.51,25.51,0,0,0,4.33,2.5L22,51.87A20.5,20.5,0,0,0,48.87,25ZM30,48.5A15.5,15.5,0,1,1,45.5,33,15.51,15.51,0,0,1,30,48.5Z" style="fill:#d1def4;opacity:0.35000000000000003"/><path d="M35.84,30.92c0,7.18-3.28,10.17-10.53,11.78l-.78-2.62c4.42-1.1,6.78-2.68,7.35-6a4.43,4.43,0,0,1-3.69,1.79c-2.73,0-5-2.18-5-5.74s2.78-6,6.29-6C33.7,24.14,35.84,26.92,35.84,30.92Zm-3.77.63c0-3.49-.71-4.73-2.55-4.73-1.59,0-2.6,1.09-2.6,3.19,0,2.37,1,3.2,2.34,3.2A3.4,3.4,0,0,0,32.07,31.55ZM60.9,16.74l-4.06,4.57L66,30V30H54.74A5,5,0,0,1,50,26.55,21,21,0,1,0,23.55,53,5,5,0,0,1,27,57.74V80h6V57.74a11,11,0,0,0-7.61-10.46A15,15,0,1,1,44.28,28.39,11,11,0,0,0,54.74,36H66v0l-9.14,8.64,4.06,4.57L77.16,33Z" style="fill:#fff"/></svg>
